X: 4239
M: 6/8
L: 1/8
K: Bb
|: e |\
dcB A2G | F2G F2e | dcB A2F | G3 e2e |\
dcB A2G | F2F F2e | def F2A | B3- B2 :|


